X: 11862
T: Emigrant's Farewell, The
R: waltz
M: 3/4
K: Gmajor
B4G2|A4G2|E3F GB|AF D4-|D2z2d2|e3e dB|A4DE|F2FE D2|E6-|1 E2z2A2:|2 E4DE||
F2G2A2|B3cd2|e3dB2|AF D4-|D4EF|G3A Bc|d2e3d|B2BAG2|A6-|A4G2|
B2B3G|A4G2|E3F GB|AF D2-|D2z2d2|e2ed B2|A4DE|F2FED2|E6-|E2z4|

